assets/Ear of corn/Flat/ear_of_corn_flat.svg

<svg width="32" height="32" viewBox="0 0 32 32" fill="none" xmlns="http://www.w3.org/2000/svg">
<path d="M23.3289 5.48C24.2898 5.48 25.0689 4.70097 25.0689 3.74C25.0689 2.77902 24.2898 2 23.3289 2C22.3679 2 21.5889 2.77902 21.5889 3.74C21.5889 4.70097 22.3679 5.48 23.3289 5.48Z" fill="#FCD53F"/>
<path d="M9.77235 22.5951L9.42876 22.4C8.60876 21.93 8.17876 21 8.34876 20.07C8.43876 19.57 8.69877 19.12 9.07877 18.79C9.6024 18.3327 10.3001 18.1583 10.9552 18.2868L10.4171 17.9806C9.40702 17.4078 8.87596 16.252 9.08422 15.117C9.19876 14.5027 9.51115 13.9508 9.97973 13.5447C10.7232 12.8986 11.745 12.7114 12.6551 13.0214C11.8763 12.4096 11.4818 11.4109 11.6588 10.42C11.7688 9.82003 12.0788 9.27003 12.5388 8.87003C13.3988 8.12003 14.6488 8.00003 15.6388 8.56003L15.9858 8.75788C15.2011 8.22177 14.7907 7.2665 14.9688 6.32C15.0688 5.78 15.3488 5.29 15.7588 4.93C16.5388 4.26 17.6488 4.14 18.5488 4.65L20.1807 5.57831C19.6543 5.2373 19.3736 4.61365 19.4887 3.98999C19.5487 3.63999 19.7287 3.32999 19.9987 3.09999C20.4987 2.66999 21.2187 2.59999 21.7887 2.91999L24.9187 4.66996C25.4887 4.99996 25.7987 5.64996 25.6787 6.29996C25.6187 6.63996 25.4387 6.95996 25.1687 7.18996C24.6687 7.62996 23.9487 7.69996 23.3787 7.36996L22.924 7.11145L22.9229 7.1137L25.0787 8.34002C25.9687 8.85002 26.4387 9.87002 26.2587 10.88C26.1687 11.42 25.8887 11.91 25.4687 12.27C24.7265 12.9171 23.6763 13.048 22.8095 12.6197L23.3187 12.91C24.3187 13.47 24.8487 14.61 24.6387 15.73C24.5287 16.33 24.2187 16.88 23.7587 17.28C23.0073 17.9352 21.9583 18.1172 21.0451 17.7727C21.754 18.3956 22.0976 19.3543 21.9233 20.313C21.8088 20.9273 21.4964 21.4792 21.0278 21.8853C20.1531 22.6455 18.8932 22.7704 17.8831 22.1977L17.3369 21.8869C17.785 22.3891 17.995 23.0796 17.8688 23.7701C17.7788 24.2701 17.5188 24.7201 17.1388 25.0501C16.4288 25.6701 15.4088 25.7701 14.5888 25.3001L14.1865 25.0716L13.5034 26.4758L9.00513 23.7768L9.77235 22.5951Z" fill="#F9C23C"/>
<path d="M23.5644 3.92543L23.0386 3.62644C22.4509 3.28621 21.7086 3.35838 21.1931 3.81202C20.9147 4.04915 20.7291 4.37907 20.6673 4.72961C20.5818 5.19246 20.7079 5.65532 20.9876 6.00947L20.7088 5.84994C19.8088 5.33994 18.6888 5.44995 17.9088 6.12995C17.4888 6.48995 17.2088 6.98994 17.1088 7.52994C16.9437 8.41603 17.2843 9.30213 17.9666 9.85386C16.9976 9.3616 15.8137 9.51051 14.9887 10.23C14.5287 10.63 14.2187 11.18 14.1087 11.78C13.9245 12.7624 14.3097 13.7603 15.0821 14.3685C14.1708 14.0628 13.1435 14.2512 12.3929 14.8958C11.9238 15.3024 11.6006 15.8655 11.4963 16.4806C11.292 17.6044 11.8083 18.7381 12.7806 19.3228C12.1156 19.1831 11.4103 19.3559 10.8788 19.82C10.4988 20.15 10.2388 20.6 10.1488 21.1C9.97876 22.03 10.4188 22.96 11.2288 23.43L12.6988 24.27C13.5188 24.74 14.5388 24.64 15.2488 24.02C15.6288 23.69 15.8888 23.24 15.9788 22.74C16.107 22.0308 15.8938 21.3274 15.4292 20.8271C16.4314 21.3659 17.6741 21.2319 18.5445 20.4843C19.0137 20.0777 19.3369 19.5147 19.4412 18.8995C19.6169 17.9333 19.2671 16.9671 18.5417 16.3376C19.458 16.689 20.5137 16.5085 21.2687 15.85C21.7287 15.45 22.0387 14.9 22.1487 14.3C22.3474 13.1874 21.8257 12.065 20.8484 11.4914C21.6634 11.7766 22.5808 11.6123 23.2488 11.0299C23.6688 10.6699 23.9488 10.1699 24.0488 9.62995C24.2388 8.60995 23.7588 7.58994 22.8588 7.07994L22.5578 6.90776C23.0037 6.96768 23.4668 6.83624 23.8221 6.52355C24.1005 6.28642 24.2861 5.9565 24.348 5.60596C24.4717 4.93581 24.1624 4.26566 23.5644 3.92543Z" fill="#FCD53F"/>
<path d="M9.08877 29.61C7.88877 28.93 7.46877 27.4 8.15877 26.2L9.39876 24.03L13.7488 26.51L12.5088 28.68C11.8088 29.88 10.2888 30.29 9.08877 29.61Z" fill="#008463"/>
<path d="M6.69877 15.67L8.25877 11.9C11.2388 14.47 12.2288 18.67 10.7188 22.31L10.5822 22.6401L15.0289 19.2601C18.7289 16.4401 24.0189 17.1601 26.8389 20.8601L19.6689 26.3101C16.4811 28.7397 12.1131 28.5416 9.1613 26.0739L9.15877 26.08C9.05428 25.9896 8.95222 25.8971 8.85264 25.8028C8.49604 25.4737 8.16309 25.1092 7.85889 24.7101L7.86624 24.7045C5.9231 22.1532 5.43406 18.7187 6.69877 15.67Z" fill="#44911B"/>
</svg>

<svg xmlns="http://www.w3.org/2000/svg" width="32" height="32" fill="none"><path fill="#FCD53F" d="M23.329 5.48a1.74 1.74 0 1 0 0-3.48 1.74 1.74 0 0 0 0 3.48Z"/><path fill="#F9C23C" d="M9.772 22.595 9.43 22.4c-.82-.47-1.25-1.4-1.08-2.33.09-.5.35-.95.73-1.28a2.21 2.21 0 0 1 1.876-.503l-.538-.306a2.73 2.73 0 0 1-.437-4.436 2.735 2.735 0 0 1 2.675-.524 2.709 2.709 0 0 1-.996-2.601c.11-.6.42-1.15.88-1.55.86-.75 2.11-.87 3.1-.31l.347.198a2.419 2.419 0 0 1-1.017-2.438c.1-.54.38-1.03.79-1.39.78-.67 1.89-.79 2.79-.28l1.632.928a1.559 1.559 0 0 1-.692-1.588c.06-.35.24-.66.51-.89.5-.43 1.22-.5 1.79-.18l3.13 1.75c.57.33.88.98.76 1.63-.06.34-.24.66-.51.89-.5.44-1.22.51-1.79.18l-.455-.259-.001.003 2.156 1.226c.89.51 1.36 1.53 1.18 2.54-.09.54-.37 1.03-.79 1.39a2.418 2.418 0 0 1-2.66.35l.51.29c1 .56 1.53 1.7 1.32 2.82a2.694 2.694 0 0 1-3.594 2.043 2.734 2.734 0 0 1-3.162 4.425l-.546-.311a2.227 2.227 0 0 1-.198 3.163c-.71.62-1.73.72-2.55.25l-.402-.228-.684 1.404-4.498-2.7.767-1.18Z"/><path fill="#FCD53F" d="m23.564 3.925-.525-.299a1.588 1.588 0 0 0-1.846.186 1.595 1.595 0 0 0-.206 2.197l-.278-.16c-.9-.51-2.02-.399-2.8.28-.42.361-.7.86-.8 1.4a2.417 2.417 0 0 0 .858 2.325 2.69 2.69 0 0 0-3.858 1.926c-.184.982.2 1.98.973 2.588a2.779 2.779 0 0 0-2.69.528c-.468.406-.791.97-.896 1.585a2.748 2.748 0 0 0 1.285 2.842 2.2 2.2 0 0 0-1.902.497c-.38.33-.64.78-.73 1.28-.17.93.27 1.86 1.08 2.33l1.47.84c.82.47 1.84.37 2.55-.25.38-.33.64-.78.73-1.28a2.222 2.222 0 0 0-.55-1.913 2.775 2.775 0 0 0 3.115-.343c.47-.406.793-.97.897-1.585a2.735 2.735 0 0 0-.9-2.561A2.693 2.693 0 0 0 22.15 14.3a2.71 2.71 0 0 0-1.3-2.809c.814.286 1.732.121 2.4-.461.42-.36.7-.86.8-1.4.19-1.02-.29-2.04-1.19-2.55l-.301-.172c.446.06.909-.072 1.264-.384.279-.238.464-.567.526-.918a1.593 1.593 0 0 0-.784-1.68Z"/><path fill="#008463" d="M9.089 29.61a2.492 2.492 0 0 1-.93-3.41l1.24-2.17 4.35 2.48-1.24 2.17c-.7 1.2-2.22 1.61-3.42.93Z"/><path fill="#44911B" d="m6.699 15.67 1.56-3.77a9.128 9.128 0 0 1 2.46 10.41l-.137.33 4.447-3.38c3.7-2.82 8.99-2.1 11.81 1.6l-7.17 5.45c-3.188 2.43-7.556 2.232-10.508-.236l-.002.006a9.19 9.19 0 0 1-.306-.277 8.485 8.485 0 0 1-.994-1.093l.007-.006A9.132 9.132 0 0 1 6.7 15.67Z"/></svg>
